X:3946
T:Day Dawn, Da
R:Other
O:Shetland
M:4/4
K:GMix
AB| \
c<d {c}BA c<d {c}BA | {c}B2 AG c<d {c}BA |\
c<d {c}BA e2 AB |\
c<d {c}BA c<d {c}BA | {c}B2 AG A2GE |
DE FG {c}BA Bc | dc BA e2 || \
AB | \
A2 {g}a2 {f}e2 dc | {c}B2 AG A2 {g}a2 |
{f}e2 dc e2 AB |\
A2 {g}a2 {f}e2 dc | {c}BA BG A2 GE |\
DE GA {c}BA Bc | dc BA e2 ||
